lib/brands/icons/treehouse.svg

<svg xmlns="http://www.w3.org/2000/svg" fill="none" aria-hidden="true" viewBox="0 0 48 48"><g id="treehouse-Icon"><path id="Vector" fill="#5FCF80" d="M39.0515 13.947C38.6022 13.7223 37.5913 13.273 36.4681 12.5991C35.2325 11.9251 33.323 13.0484 32.0874 14.9579L29.9532 18.5523C29.167 20.1248 29.2793 21.8097 30.2902 23.2699L30.4025 23.3822C31.4135 24.8424 32.7613 26.078 33.0983 26.5273C33.323 26.7519 33.5476 27.2012 33.6599 27.5382C33.9969 28.8861 33.323 30.1217 31.9751 30.4587C30.7395 30.7956 29.3916 30.0094 28.9423 28.7738C28.83 28.4368 28.83 28.0998 28.83 27.7629C28.9423 27.2012 28.7177 26.3027 27.9314 25.6287C27.1451 24.7301 25.5726 26.415 25.1233 27.9875V28.0998C24.674 29.7847 24.337 31.1326 24.4493 31.2449C24.4493 31.3573 24.5617 31.4696 24.5617 31.4696C25.2356 32.8175 24.7863 34.39 23.4384 35.064C22.0905 35.7379 20.4057 35.2886 19.7317 33.9407C19.0578 32.5928 19.5071 31.0203 20.855 30.3463C20.9673 30.3463 20.9673 30.234 21.0796 30.234C21.1919 30.234 21.4166 29.4477 21.7536 28.6615C21.9782 27.8752 22.2028 27.2012 22.2028 27.2012C22.2028 27.0889 22.2028 26.9766 22.3152 26.9766L23.6631 22.259L22.3152 25.0671C22.0905 24.5055 21.8659 24.5055 21.1919 24.9548C20.855 25.1794 20.181 25.741 19.9564 25.9657C19.3947 26.415 18.9454 27.2012 18.7208 27.6505C18.6085 27.9875 18.3838 28.2122 18.1592 28.4368C17.1482 29.3354 15.5757 29.1108 14.7894 28.0998C14.0032 27.0889 14.2278 25.741 15.2387 24.9548C15.5757 24.7301 15.9127 24.5055 16.2497 24.5055C16.8113 24.3931 18.9454 23.0452 20.181 22.259C20.4057 22.1466 20.6303 21.922 20.7426 21.8097L24 19.4509L21.0796 21.0234H20.4057C19.5071 21.1357 18.3838 21.248 18.1592 21.585C18.0468 21.6973 17.9345 21.922 17.7099 22.0343C16.8113 22.4836 15.4634 22.259 14.6771 21.3604C14.0032 20.3495 14.2278 19.1139 15.1264 18.4399C15.688 18.103 16.1373 17.9906 16.5866 17.9906C17.3729 17.9906 19.3947 18.4399 21.0796 18.103L21.5289 17.9906C23.2138 17.6537 25.2356 16.3058 26.0219 14.7332C26.0219 14.7332 26.8082 13.273 27.8191 11.7005C28.83 10.0156 28.7177 8.21841 27.7067 7.54446L25.7972 6.42122C24.7863 5.85959 23.2138 5.85959 22.2028 6.42122L8.94856 13.7223C7.93764 14.2839 7.15137 15.7441 7.15137 16.8674V31.2449C7.15137 32.3682 7.93764 33.6037 8.94856 34.1654L22.3152 41.5788C23.3261 42.1404 24.8986 42.1404 25.9096 41.5788L39.0515 34.053C40.0624 33.4914 40.8487 32.2558 40.8487 31.1326V16.8674C40.8487 15.7441 40.0624 14.5086 39.0515 13.947Z"/></g></svg>

<svg xmlns="http://www.w3.org/2000/svg" fill="none" aria-hidden="true" viewBox="0 0 48 48"><path fill="#5FCF80" d="M39.051 13.947c-.449-.225-1.46-.674-2.583-1.348-1.236-.674-3.145.45-4.38 2.359l-2.135 3.594c-.786 1.573-.674 3.258.337 4.718l.113.112c1.01 1.46 2.358 2.696 2.695 3.145.225.225.45.674.562 1.011.337 1.348-.337 2.584-1.685 2.92-1.236.338-2.583-.449-3.033-1.684-.112-.337-.112-.674-.112-1.011.112-.562-.112-1.46-.899-2.134-.786-.899-2.358.786-2.808 2.358v.113c-.449 1.685-.786 3.033-.674 3.145 0 .112.113.225.113.225.674 1.348.224 2.92-1.124 3.594-1.348.674-3.032.225-3.706-1.123-.674-1.348-.225-2.92 1.123-3.595.112 0 .112-.112.225-.112.112 0 .337-.786.674-1.573.224-.786.449-1.46.449-1.46 0-.112 0-.224.112-.224l1.348-4.718-1.348 2.808c-.225-.561-.45-.561-1.123-.112-.337.224-1.011.786-1.236 1.01-.561.45-1.01 1.236-1.235 1.686-.113.337-.337.561-.562.786-1.01.898-2.583.674-3.37-.337-.786-1.011-.561-2.359.45-3.145.337-.225.674-.45 1.01-.45.562-.112 2.696-1.46 3.932-2.246.225-.112.45-.337.562-.45L24 19.452l-2.92 1.572h-.674c-.899.113-2.022.225-2.247.562-.112.112-.224.337-.45.45-.898.449-2.246.224-3.032-.675-.674-1.01-.45-2.246.45-2.92.561-.337 1.01-.45 1.46-.45.786 0 2.808.45 4.493.113l.449-.112c1.685-.337 3.707-1.685 4.493-3.258 0 0 .786-1.46 1.797-3.033 1.011-1.684.899-3.482-.112-4.156l-1.91-1.123c-1.01-.561-2.583-.561-3.594 0l-13.254 7.3c-1.011.562-1.798 2.022-1.798 3.145v14.378c0 1.123.787 2.359 1.798 2.92l13.366 7.414c1.011.561 2.584.561 3.595 0l13.141-7.526c1.011-.562 1.798-1.797 1.798-2.92V16.867c0-1.123-.787-2.358-1.797-2.92Z"/></svg>
